X:1
T:Be Kind to Thy Father
T:Alonzo Judson Abbey, 1879
T:Be Kind to Thy Father
T:Public Domain
T:Public Domain
T:Public Domain
C:Alonzo Judson Abbey, 1879
Z:Public Domain
%%score ( 1 2 ) 3
L:1/8
M:3/4
K:Ab
V:1 treble 
V:2 treble 
V:3 bass 
V:1
 [CE]2 | [CE]2 [CA]2 [DB]2 | [Ec]3 [DB] [CA]2 | [CA]2 [B,G]2 [CA]2 | [DB]4 [DB]2 | %5
w: 1.~Be|kind to thy|fa- ther, for|when thou wast|young, Who|
w: 2.~Be|kind to thy|mo- ther, for|lo! on her|brow May|
w: 3.~Be|kind to thy|bro- ther; his|heart will have|dearth If~the|
w: 4.~Be|kind to thy|sis- ter; not|ma- ny may|know The|
 [DB]2 [CA]2 [DB]2 | [CA]2 [Ec]3 [DB] | [CA]4 [CE]2 | [CE]2 [CA]2 [DB]2 | [Ec]3 [DB] [CA]2 | %10
w: loved thee so|fond- ly as|he? He|caught the first|ac- cents that|
w: trac- es of|sor- row be|seen; Oh!|well may’st thou|cher- ish and|
w: smiles of thy|joy be with-|drawn; The|flow- ers of|feel- ing will|
w: depth of true|sis- ter- ly|love; The|wealth of the|o- cean lies|
 [CA]2 [B,G]2 [CA]2 | [DB]4 [DB]2 | [DB]2 [CA]2 [DB]2 | [CA]2 [Ec]3 [DB] | [CA]4 [FA]2 | %15
w: fell from thy|tongue, And|joined in thy|in- no- cent|glee. Be|
w: com- fort her|now For|lov- ing and|kind she has|been. Re-|
w: fade at the|birth, If|love and af-|fect- ion be|gone; Be|
w: fa- thoms be-|low The|sur- face that|spark- les a-|bove. Thy|
 [FA]3 [FB] [FA]2 | [=EG]3 [EA] [EG]2 | F2 [FA]2 [DF]2 | [CE]4 [CE]2 | [CA]3 [CA] [CA]2 | %20
w: kind to thy|fa- ther, for|now he is|His locks|in- ter- min-|
w: mem- ber thy|mo- ther, for|thee will she|As long|as God giv-|
w: kind to thy|bro- ther, wher-|ev- er you|The love|of a bro-|
w: kind- ness shall|bring to thee|ma- ny sweet|And bless-|ings thy path-|
 [=DA]3 [DG] [DA]2 | [EB]4 E2 | [Ec]2 [DB]2 [CA]2 | [Ed]2 [Ed]2 [EB]2 | [Ee]2 [Ed]2 [_Gc]2 | %25
w: gled with gray,|His foot-|are fee- ble,|once fear- less|and bold: Thy|
w: eth her breath;|With ac-|of kind- ness,|then cheer her|lone way, E’en|
w: ther shall be|An or-|ment pur- er|and rich- er|by far Than|
w: way shall crown;|Af- fect-|shall weave thee|a gar- land|of flowers More|
 [Ff]4 [Af]2 | [Ae]2 [Ed]2 [Ec]2 | [Ge]2 [Gd]3 [GB] | A4 |] %29
w: fa- ther|is pass- ing|a- way. *||
w: to the|dark val- ley|of death. *||
w: pearls from|the depths of|the sea. *||
w: pre- cious|than wealth or|re- nown. *||
V:2
 x2 | x6 | x6 | x6 | x6 | x6 | x6 | x6 | x6 | x6 | x6 | x6 | x6 | x6 | x6 | x6 | x6 | F2 x4 | x6 | %19
w: |||||||||||||||||old,||
w: |||||||||||||||||pray||
w: |||||||||||||||||are;||
w: |||||||||||||||||hours,||
 x6 | x6 | x4 E2 | x6 | x6 | x6 | x6 | x6 | x6 | A4 |] %29
w: ||steps||||||||
w: ||cents||||||||
w: ||na-||||||||
w: ||ion||||||||
V:3
 A,,2 | A,,2 A,,2 A,,2 | A,,3 A,, A,,2 | E,2 E,2 E,2 | E,4 E,2 | E,2 E,2 E,2 | E,2 E,3 E, | %7
 A,,4 A,,2 | A,,2 A,,2 A,,2 | A,,3 A,, A,,2 | E,2 E,2 E,2 | E,4 E,2 | E,2 E,2 E,2 | E,2 E,3 E, | %14
 A,,4 [F,C]2 | [F,C]3 [F,C] [F,C]2 | [C,C]3 [C,C] [C,B,]2 | [D,A,]2 [D,A,]2 [D,A,]2 | %18
 [A,,A,]4 [A,,A,]2 | [F,A,]3 [F,A,] [F,A,]2 | [B,,B,]3 [B,,B,] [B,,B,]2 | [E,G,]4 [E,G,]2 | %22
 [A,,A,]2 [A,,A,]2 [A,,A,]2 | [B,,G,]2 [B,,G,]2 [B,,G,]2 | [C,A,]2 [C,A,]2 [C,A,]2 | %25
 [D,A,]4 [D,D]2 | [E,C]2 [E,B,]2 [E,A,]2 | [E,B,]2 [E,B,]3 [E,D] | [A,,C]4 |] %29

